X:1
T:Blockley, LM
T:Blockley, LM
T:Anonymous, 1889
T:Public Domain Courtesy of the Cyber Hymnal™
C:Anonymous, 1889
Z:Public Domain
Z:Courtesy of the Cyber Hymnal™
%%score ( 1 2 ) ( 3 4 )
L:1/8
M:3/4
K:F
V:1 treble 
V:2 treble 
V:3 bass 
V:4 bass 
V:1
 [FA]2 F2 [FB]2 | [FA]4 [FA]2 | [EA]4 [EG]2 | F4 [Fc]2 | [Fd]4 [Fc]2 | (c2 B2) [FA]2 | %6
 [GB]4 [FA]2 | [EG]4 [EG]2 | [FA]4 [FA]2 | [Fc]4 [Fc]2 | (f2 e2) [Fd]2 | [Fc]4 [Fc]2 | %12
 B2 c2 [FB]2 | [FA]4 [FA]2 | (G2 A2) [EG]2 | F6 |] %16
V:2
 x2 F2 x2 | x6 | x6 | F4 x2 | x6 | E4 x2 | x6 | x6 | x6 | x6 | F4 x2 | x6 | F4 x2 | x6 | E4 x2 | %15
 F6 |] %16
V:3
 [F,C]2 [F,A,]2 [F,D]2 | [F,C]4 [F,C]2 | [C,C]4 [C,B,]2 | [F,A,]4 [A,C]2 | B,4 [A,C]2 | %5
 [G,C]4 [F,C]2 | [E,C]4 [F,C]2 | [C,C]4 [C,C]2 | [F,C]4 [F,C]2 | [F,A,]4 [F,A,]2 | A,4 [B,,B,]2 | %11
 [A,,C]4 [A,,C]2 | [B,,D]4 [B,,D]2 | [C,C]4 [C,C]2 | (B,2 C2) [C,B,]2 | [F,A,]6 |] %16
V:4
 x6 | x6 | x6 | x6 | B,4 x2 | x6 | x6 | x6 | x6 | x6 | (D,2 C,2) x2 | x6 | x6 | x6 | C,4 x2 | x6 |] %16

